public/illustrations/_tissue.svg

<svg width="173" height="151" viewBox="0 0 173 151" fill="none" xmlns="http://www.w3.org/2000/svg">
<path d="M46.2816 40.7768C45.3896 35.9771 44.5967 31.6164 43.818 27.1139C43.6623 25.9529 43.2234 24.7634 42.4872 23.6873C41.7368 22.7528 40.8306 21.9318 39.6129 21.3796C38.9475 21.0257 38.2678 20.6574 37.6165 20.1618C34.4874 17.5283 35.0113 12.8845 38.8625 11.4686C41.0995 10.5766 43.5632 10.1376 45.9702 10.265C53.63 10.5482 61.3889 9.98207 68.9638 8.41047C73.3247 7.61759 77.6148 7.51821 81.9615 8.14119C89.947 9.31636 97.0688 8.11287 103.355 2.83172C104.29 2.08131 105.21 1.47245 106.258 1.01938C107.334 0.283131 108.651 0 109.939 0C111.199 0.141586 112.445 0.566316 113.493 1.38751C114.541 2.22287 115.277 3.29897 115.56 4.61572C115.857 5.79088 115.843 7.20668 115.418 8.45264C114.909 10.534 114.102 12.5871 113.167 14.6118C110.76 19.6098 111.327 24.8061 111.666 30.6819C113.564 30.3279 115.164 29.9314 116.749 29.8181C119.241 29.2376 121.832 28.9546 124.395 28.9546C126.221 29.1528 128.161 29.6623 129.605 30.8091C140.592 39.5874 151.424 48.4793 162.284 57.2435C163.6 58.2487 164.889 59.3811 166.191 60.528C167.508 61.5333 168.627 62.935 169.32 64.4358C170.014 65.9366 170.396 67.5509 170.495 69.2641C171.189 84.7253 171.883 100.328 172.435 115.775C172.704 122.359 171.572 123.52 165.285 124.95C140.168 130.415 115.192 136.036 90.0886 141.374C75.0663 144.545 59.8174 147.122 44.7951 150.294C38.9475 151.639 34.799 149.175 31.6841 145.267C22.7783 134.45 14.1698 123.378 5.57546 112.306C2.95611 109.021 2.84297 104.873 2.70138 101.022C1.76691 86.3817 0.959849 71.9118 0.0253773 57.2718C-0.00294001 56.2665 -0.0313748 55.2751 0.0818944 54.1425C0.421702 48.479 0.733276 48.2386 6.53833 47.3041C18.9979 45.421 31.3301 43.3681 43.818 41.3434C44.6959 41.1593 45.4463 40.8052 46.4799 40.4937L46.31 40.7627L46.2816 40.7768ZM161.774 96.2218C161.477 88.6328 161.038 81.044 160.74 73.455L43.0676 95.2591C43.3649 102.848 43.3366 110.819 44.1578 118.748L49.1133 117.729C56.1077 116.37 62.9465 114.996 69.9267 113.779C74.5849 112.872 79.3279 112.547 83.9861 111.641C100.297 108.469 116.48 105.142 132.791 101.97L161.774 96.2218ZM113.082 49.909L114.555 49.4984C118.109 48.3232 120.445 49.017 121.62 51.2824C122.795 53.5478 121.761 56.422 118.689 58.3617C118.066 58.8572 117.316 59.2112 116.721 59.4236C112.247 61.2076 107.744 63.2748 103.058 64.45C86.7187 69.1789 69.6293 70.4106 52.7664 68.2585C51.6337 68.1311 50.5152 68.0037 49.425 67.6073C48.4763 67.2109 47.6834 66.5595 47.0604 65.7808C46.4516 64.8605 46.2816 63.8413 46.2533 62.836C46.3665 61.8449 46.7631 60.7547 47.4285 59.976C48.094 59.1972 48.9859 58.73 50.1469 58.5743C51.1663 58.4044 52.1575 58.376 52.8938 58.1636C55.1025 54.9921 52.3699 52.6844 52.3982 49.8385L14.6654 56.0398L39.3015 85.5606C78.1387 79.6282 116.367 71.4868 154.893 64.5208L154.992 63.6712L124.154 38.7239L112.714 40.437C112.742 42.7166 112.827 44.5855 113.04 46.4544C113.068 47.4597 113.238 48.4651 113.521 49.7818L113.082 49.8807V49.909ZM44.5118 139.873C84.3401 132.765 123.461 124.298 162.623 115.407C162.553 112.264 162.439 109.404 162.312 106.685C161.604 106.6 44.9507 128.235 44.2003 128.588C44.2286 132.156 44.3843 135.88 44.5118 139.873ZM94.5061 56.8186L103.03 54.4964C102.506 41.3289 101.925 28.5865 101.345 15.8437C94.4352 19.0577 87.0587 18.8169 79.328 17.8116C75.9441 17.4293 72.6451 17.6418 69.3036 18.2648C64.4047 18.7179 59.6191 19.4681 54.8335 20.2185C53.9557 20.4026 52.9503 20.4308 52.1008 20.4874C52.8087 24.4094 53.3751 28.1758 54.2671 31.7013C55.0458 34.9153 56.1078 38.1717 57.3396 41.1591C59.3926 45.8032 61.7147 50.4755 63.9234 54.9921C64.6172 56.4929 65.2967 57.9938 65.9763 59.6362L72.1353 59.3247C70.9318 54.7798 69.8558 50.3765 68.4683 46.2422C67.7179 44.0193 66.3586 42.1642 65.6082 39.9413C64.4614 37.3928 63.4844 34.717 62.9322 31.956C62.2243 28.0341 65.6789 25.1458 69.077 26.6607C70.4079 27.5244 71.5408 28.7845 72.2487 30.1437C73.0416 31.9418 73.8203 33.8816 74.4715 35.8071C75.9157 39.5309 77.6432 43.1414 78.8042 46.8367C80.1068 50.5463 80.9563 54.3407 81.9757 58.0219L83.3774 58.1778C83.8163 58.0787 84.2694 57.8523 84.5808 57.5974C83.4057 50.2066 84.6658 42.7874 85.6144 35.4957C86.0108 31.9844 87.7665 30.1864 90.5983 30.3563C93.4159 30.6678 95.3414 32.5932 95.3981 35.878C95.4406 38.016 95.1998 40.2673 94.676 42.3486C93.4583 46.9076 94.2371 51.41 94.5344 56.4363L94.4919 56.8611L94.5061 56.8186ZM10.2337 66.3898C10.4886 70.5525 10.715 73.5682 10.6725 76.5556C10.6584 80.5483 11.2531 84.1729 14.991 86.4383C15.3874 86.7639 15.7697 87.0896 16.0104 87.5427C21.0509 93.5176 26.0773 99.4924 31.1177 105.467C31.7407 106.246 32.5195 106.912 33.6664 108.172C33.5673 103.882 33.2415 100.427 33.3689 96.7458C33.4539 94.7636 32.6752 92.6824 31.2735 91.2383C25.3551 84.3147 19.5785 77.2637 13.8017 70.3402C12.7823 69.2358 11.7629 68.1172 10.2479 66.3898H10.2337ZM12.5983 98.9971C12.2443 100.951 12.1592 102.933 12.7963 104.859C13.2919 106.77 14.3963 108.455 15.6564 109.885C21.065 116.327 26.3039 123.038 31.5426 129.75C32.293 130.684 33.1849 131.647 34.4308 133.204C34.2609 129.622 34.1477 126.762 34.1052 124.624L12.5983 99.0113V98.9971Z" fill="#102185"/>
</svg>

<svg xmlns="http://www.w3.org/2000/svg" width="173" height="151" fill="none" viewBox="0 0 173 151"><path fill="#102185" d="M46.282 40.777c-.892-4.8-1.685-9.16-2.464-13.663a8 8 0 0 0-1.33-3.427c-.751-.934-1.657-1.755-2.875-2.307-.666-.354-1.345-.723-1.996-1.218-3.13-2.634-2.606-7.277 1.245-8.693 2.237-.892 4.701-1.331 7.108-1.204 7.66.283 15.419-.283 22.994-1.855 4.36-.792 8.65-.892 12.998-.269 7.985 1.175 15.107-.028 21.393-5.31.935-.75 1.855-1.359 2.903-1.812C107.334.283 108.651 0 109.939 0c1.26.142 2.506.566 3.554 1.388 1.048.835 1.784 1.911 2.067 3.228.297 1.175.283 2.59-.142 3.837-.509 2.081-1.316 4.134-2.251 6.159-2.407 4.998-1.84 10.194-1.501 16.07 1.898-.354 3.498-.75 5.083-.864a34 34 0 0 1 7.646-.863c1.826.198 3.766.707 5.21 1.854 10.987 8.778 21.819 17.67 32.679 26.434 1.316 1.006 2.605 2.138 3.907 3.285a10.6 10.6 0 0 1 3.129 3.908c.694 1.5 1.076 3.115 1.175 4.828.694 15.461 1.388 31.064 1.94 46.511.269 6.584-.863 7.745-7.15 9.175-25.117 5.465-50.093 11.086-75.196 16.424-15.023 3.171-30.272 5.748-45.294 8.92-5.848 1.345-9.996-1.119-13.11-5.027-8.907-10.817-17.515-21.889-26.11-32.961-2.619-3.285-2.732-7.433-2.874-11.284C1.767 86.382.96 71.912.025 57.272c-.028-1.005-.056-1.997.057-3.13.34-5.663.651-5.903 6.456-6.838 12.46-1.883 24.792-3.936 37.28-5.96.878-.185 1.628-.539 2.662-.85l-.17.269zm115.492 55.445c-.297-7.59-.736-15.178-1.034-22.767L43.068 95.259c.297 7.589.269 15.56 1.09 23.489l4.955-1.019c6.995-1.359 13.834-2.733 20.814-3.95 4.658-.907 9.4-1.232 14.06-2.138 16.31-3.172 32.493-6.499 48.804-9.671zm-48.692-46.313 1.473-.41c3.554-1.176 5.89-.482 7.065 1.783 1.175 2.266.141 5.14-2.931 7.08-.623.495-1.373.85-1.968 1.062-4.474 1.784-8.977 3.85-13.663 5.026-16.34 4.729-33.429 5.96-50.292 3.808-1.132-.127-2.25-.254-3.341-.65-.949-.397-1.742-1.049-2.365-1.827-.608-.92-.778-1.94-.807-2.945.114-.991.51-2.081 1.175-2.86.666-.779 1.558-1.246 2.719-1.402 1.02-.17 2.01-.198 2.747-.41 2.209-3.172-.524-5.48-.496-8.325l-37.733 6.2 24.636 29.522c38.838-5.933 77.066-14.074 115.592-21.04l.099-.85-30.838-24.947-11.44 1.713c.028 2.28.113 4.149.326 6.017.028 1.006.198 2.011.481 3.328l-.439.099zm-68.57 89.964c39.828-7.108 78.949-15.575 118.111-24.466-.07-3.143-.184-6.003-.311-8.722-.708-.085-117.361 21.55-118.112 21.903.029 3.568.184 7.292.312 11.285m49.994-83.054 8.524-2.323c-.524-13.167-1.105-25.91-1.685-38.652-6.91 3.214-14.286 2.973-22.017 1.968-3.384-.383-6.683-.17-10.024.453-4.9.453-9.685 1.203-14.47 1.953-.878.185-1.884.213-2.733.27.708 3.921 1.274 7.688 2.166 11.213a66 66 0 0 0 3.073 9.458c2.053 4.644 4.375 9.316 6.583 13.833a122 122 0 0 1 2.053 4.644l6.16-.311c-1.204-4.545-2.28-8.949-3.668-13.083-.75-2.223-2.11-4.078-2.86-6.3-1.147-2.55-2.124-5.225-2.676-7.986-.708-3.922 2.747-6.81 6.145-5.295a9.46 9.46 0 0 1 3.172 3.483 69 69 0 0 1 2.223 5.663c1.444 3.724 3.171 7.334 4.332 11.03 1.303 3.71 2.152 7.504 3.172 11.185l1.401.156c.44-.1.892-.326 1.204-.58-1.175-7.391.085-14.81 1.033-22.102.397-3.512 2.152-5.31 4.984-5.14 2.818.312 4.743 2.237 4.8 5.522a25 25 0 0 1-.722 6.47c-1.218 4.56-.439 9.062-.142 14.088l-.042.425zm-84.272 9.57c.255 4.163.481 7.18.438 10.167-.014 3.992.581 7.617 4.319 9.882.396.326.779.652 1.02 1.105 5.04 5.975 10.066 11.95 15.107 17.924.623.779 1.402 1.445 2.548 2.705-.099-4.29-.424-7.745-.297-11.426.085-1.982-.694-4.064-2.096-5.508-5.918-6.923-11.695-13.974-17.471-20.898a193 193 0 0 1-3.554-3.95zm2.364 32.608c-.354 1.954-.439 3.936.198 5.862.496 1.911 1.6 3.596 2.86 5.026 5.409 6.442 10.648 13.153 15.887 19.865.75.934 1.642 1.897 2.888 3.454-.17-3.582-.283-6.442-.326-8.58L12.598 99.011z"/></svg>
